src/svg/anchor-outline.svg

<svg version="1.2" baseProfile="tiny" xmlns="http://www.w3.org/2000/svg" width="24" height="24" viewBox="0 0 24 24"><g><circle cx="12" cy="6" r="1"/><path d="M19.793 12.096c.134-.34.207-.709.207-1.096 0-1.654-1.346-3-3-3h-.422c.273-.619.422-1.297.422-2 0-2.757-2.243-5-5-5s-5 2.243-5 5c0 .703.149 1.381.422 2h-.422c-1.654 0-3 1.346-3 3 0 .387.073.756.207 1.096-.732.548-1.207 1.422-1.207 2.404 0 4.963 4.037 9 9 9s9-4.037 9-9c0-.982-.475-1.856-1.207-2.404zm-7.793 9.404c-3.859 0-7-3.141-7-7 0-.553.447-1 1-1s1 .447 1 1c0 2.414 1.721 4.434 4 4.898v-7.398h-4c-.553 0-1-.447-1-1s.447-1 1-1h4v-1.184c-1.162-.413-2-1.511-2-2.816 0-1.657 1.343-3 3-3s3 1.343 3 3c0 1.305-.838 2.403-2 2.816v1.184h4c.553 0 1 .447 1 1s-.447 1-1 1h-4v7.398c2.279-.465 4-2.484 4-4.898 0-.553.447-1 1-1s1 .447 1 1c0 3.859-3.141 7-7 7zm-4.679-8.5h2.679v4.962c-1.207-.701-2-2.009-2-3.462 0-.597-.263-1.133-.679-1.5zm9.358 0c-.416.367-.679.903-.679 1.5 0 1.453-.793 2.761-2 3.462v-4.962h2.679z"/><circle cx="12" cy="6" r="1"/></g></svg>

<?xml version="1.0" encoding="iso-8859-1"?>
<!-- Generator: Adobe Illustrator 16.2.1, SVG Export Plug-In . SVG Version: 6.00 Build 0)  -->
<svg version="1.2" baseProfile="tiny" xmlns="http://www.w3.org/2000/svg" xmlns:xlink="http://www.w3.org/1999/xlink" x="0px"
	 y="0px" width="24px" height="24px" viewBox="0 0 24 24" xml:space="preserve">
<g id="Layer_1">
	<g>
		<circle cx="12" cy="6" r="1"/>
	</g>
	<g>
		<path d="M19.793,12.096C19.927,11.756,20,11.387,20,11c0-1.654-1.346-3-3-3h-0.422C16.851,7.381,17,6.703,17,6
			c0-2.757-2.243-5-5-5S7,3.243,7,6c0,0.703,0.149,1.381,0.422,2H7c-1.654,0-3,1.346-3,3c0,0.387,0.073,0.756,0.207,1.096
			C3.475,12.644,3,13.518,3,14.5c0,4.963,4.037,9,9,9s9-4.037,9-9C21,13.518,20.525,12.644,19.793,12.096z M12,21.5
			c-3.859,0-7-3.141-7-7c0-0.553,0.447-1,1-1s1,0.447,1,1c0,2.414,1.721,4.434,4,4.898V12H7c-0.553,0-1-0.447-1-1s0.447-1,1-1h4
			V8.816C9.838,8.403,9,7.305,9,6c0-1.657,1.343-3,3-3s3,1.343,3,3c0,1.305-0.838,2.403-2,2.816V10h4c0.553,0,1,0.447,1,1
			s-0.447,1-1,1h-4v7.398c2.279-0.465,4-2.484,4-4.898c0-0.553,0.447-1,1-1s1,0.447,1,1C19,18.359,15.859,21.5,12,21.5z M7.321,13
			H10v4.962c-1.207-0.701-2-2.009-2-3.462C8,13.903,7.737,13.367,7.321,13z M16.679,13C16.263,13.367,16,13.903,16,14.5
			c0,1.453-0.793,2.761-2,3.462V13H16.679z"/>
		<circle cx="12" cy="6" r="1"/>
	</g>
</g>
<g id="nyt_x5F_exporter_x5F_info" display="none">
</g>
</svg>
